F1 Grump/assets/track outlines/Monaco - White_1.svg

<svg width="3972" height="2467" viewBox="0 0 3972 2467" fill="none" xmlns="http://www.w3.org/2000/svg">
<g clip-path="url(#clip0_13_789)">
<path d="M345.161 2461.91C290.721 2478.42 212.391 2452.46 136.731 2424.36L122.481 2419.11C93.8011 2408.65 25.0011 2379.25 5.08115 2331.9C-10.0189 2295.9 12.0811 2265.16 25.3011 2246.8C28.8411 2241.88 34.0411 2234.65 35.6611 2231L34.8611 2203.87C31.1211 2076.2 27.9211 1935.06 37.4111 1873.62C59.7011 1729.07 115.081 1520.73 159.471 1353.73L163.541 1338.39C212.721 1153.39 378.541 846.39 493.711 695.62C524.131 655.82 607.391 575 665.001 529.27C671.901 523.8 684.551 504.27 693.791 490.09C718.411 452.18 741.711 416.39 780.261 420.95C847.741 428.95 986.431 482.2 1108.75 529.21C1128.24 536.7 1146.94 543.88 1164.35 550.49C1236.54 577.89 1318.2 598.87 1397.17 619.17C1445.99 631.72 1492.11 643.55 1533.17 656.26C1572.87 668.52 1611.07 684.6 1648 700.15C1697.75 721.15 1744.74 740.88 1794 751.54C1839.52 761.39 1893.26 764.09 1950.15 766.93C2014.42 770.15 2080.88 773.48 2141.6 787.74C2198.6 801.1 2254.03 826.74 2307.66 851.55C2359.47 875.55 2408.41 898.12 2450.66 905.69C2532.36 920.35 2596.08 927.89 2671.8 890.59C2806.54 824.35 2790.1 698.88 2778.13 607.37L2776.37 593.73C2774.83 581.63 2770.69 564.28 2766.27 545.94C2750.83 481.35 2733.27 408.2 2771.12 362.31C2818.18 305.22 2922.69 243.88 3090.37 174.86C3134.74 156.6 3188.3 132.6 3240.05 109.37C3459.05 11.15 3523.56 -12.77 3560.17 5.8C3599.75 25.85 3634.26 107.8 3630.17 152.08C3629.66 157.595 3628.65 163.053 3627.17 168.39C3633.21 165.057 3639.7 162.606 3646.44 161.11C3672.59 155.61 3701.38 163.23 3731.86 171.28C3746.42 175.14 3761.48 179.11 3775.62 181.43C3908.16 203.08 3972.42 241.32 3972.12 298.36C3971.86 347.36 3934.42 403.61 3886.96 474.93C3862.5 511.71 3837.18 549.75 3816.89 587.59C3768.26 678.23 3700.43 770.59 3620.72 854.59C3544.42 935.08 3429.77 1031.72 3328.57 1100.78C3227.37 1169.84 3098.01 1204.78 3027.74 1202.53C2986.87 1201.19 2947.74 1200.45 2908.98 1199.71C2840.6 1198.38 2769.85 1197.04 2692.88 1192.37C2572.94 1185.09 2438.58 1176.95 2323.88 1153.22C2239.18 1135.66 2142.21 1102.92 2064.27 1076.61C2038.58 1067.94 2015.27 1060.07 1995.81 1053.92C1976.57 1047.82 1956.07 1039.05 1936.24 1030.54C1920.24 1023.71 1896.01 1013.32 1880.87 1009.15C1880.21 1010.75 1879.56 1012.32 1879.01 1013.68C1871.85 1031.1 1861.01 1057.44 1833.26 1066.14C1794.4 1077.84 1741.57 1056.72 1717.99 1038.37C1698.29 1023.02 1691.84 999.1 1687.15 981.62C1686.57 979.43 1685.83 976.7 1685.1 974.21C1604.63 946 1455.31 886.58 1310.66 829C1161.15 769.46 1006.49 707.89 932.661 682.76C914.121 677.29 849.771 721.16 825.501 737.76L810.851 747.76C665.101 845.67 587.701 1017.66 570.161 1075.76C566.411 1088.18 577.721 1108.57 587.711 1126.55C598.811 1146.55 610.281 1167.2 610.781 1190.68C611.861 1241.47 595.691 1282.95 575.221 1335.47L574.551 1337.18C563.941 1364.38 551.241 1399.18 537.811 1436C504.811 1526.38 467.411 1628.94 434.641 1693.43C412.901 1736.25 363.861 1726.69 337.501 1721.57C332.831 1720.66 326.211 1719.38 320.751 1718.57C305.751 1754.74 288.331 1841.8 280.751 1922.57C274.031 1993.46 276.811 2085.93 287.521 2147.4C292.521 2176 313.411 2209.78 330.231 2236.93C336.701 2247.39 342.661 2257.06 347.381 2265.61C350.531 2271.35 356.741 2278.61 362.761 2285.69C376.181 2301.48 391.401 2319.36 395.761 2343.76C404.241 2391.38 392.711 2446.17 347.821 2461.1C346.951 2461.38 346.091 2461.66 345.201 2461.93M84.2011 2303.54C93.3911 2312.83 116.051 2328.39 151.401 2341.27L166.101 2346.7C201.101 2359.7 279.571 2388.82 316.471 2384.29C317.587 2376.26 317.459 2368.1 316.091 2360.1C314.881 2356.67 306.601 2346.93 301.091 2340.47C292.901 2330.87 283.641 2319.97 276.551 2307.12C272.401 2299.58 267.151 2291.12 261.481 2281.96C240.961 2248.84 215.481 2207.65 207.801 2163.41C195.801 2094.35 192.801 1995.08 200.261 1916.41C206.391 1851.88 226.311 1716.41 257.921 1665.33C281.621 1626.91 327.091 1635.77 354.231 1641.07C358.781 1641.95 364.631 1643.07 369.611 1643.84C398.731 1583.09 432.451 1490.84 462.401 1408.84C476.041 1371.56 488.911 1336.37 499.851 1308.31L500.521 1306.61C519.001 1259.29 531.191 1228.06 530.461 1193.75C529.831 1189.43 522.461 1176.11 517.541 1167.3C501.541 1138.41 479.541 1098.85 493.421 1053.14C494.131 1050.78 567.421 814.67 767.271 680.55L781.401 670.96C835.971 633.72 903.811 587.39 959.111 606.23C1034.75 631.99 1183.34 691.17 1340.61 753.79C1491 813.59 1646.49 875.5 1722 901.27C1751.07 911.2 1758.9 940.37 1764.11 959.67C1765.39 964.38 1767.39 971.88 1768.99 975.48C1778.37 981.85 1793.44 986.8 1803.4 988.3C1804.15 986.51 1804.9 984.69 1805.54 983.15C1813.28 964.25 1827.61 929.15 1865.99 926.65C1894.88 924.77 1928.65 939.25 1967.72 956C1985.79 963.76 2004.47 971.76 2020.02 976.67C2039.92 982.96 2063.67 990.99 2089.9 999.84C2165.8 1025.46 2260.22 1057.37 2340.25 1073.96C2449.38 1096.57 2580.7 1104.54 2696.49 1111.59C2773.32 1116.28 2840.09 1117.59 2910.77 1118.93C2949.89 1119.69 2989.31 1120.46 3030.51 1121.81C3089.21 1123.75 3200.41 1091.32 3284.77 1033.81C3381.71 967.69 3491.37 875.41 3564.14 798.72C3639.08 719.72 3702.66 633.38 3748.02 548.95C3770.13 507.79 3796.53 468.16 3822.02 429.87C3852.3 384.39 3889.58 328.44 3893.49 301.61C3882.84 291.38 3841.39 272.87 3763.57 260.16C3745.75 257.26 3728.08 252.58 3712.49 248.46C3695.64 244 3672.77 237.97 3663.7 239.06C3658.15 241.97 3648.34 252.83 3646.45 258.3C3642.63 281.68 3651.64 325.04 3659.61 363.3C3672.81 426.75 3684.2 481.58 3658.55 517.78C3647.29 533.7 3630.55 543.35 3610.29 545.64C3575.16 549.64 3548.65 541.64 3531.46 521.97C3504.24 490.72 3514.38 446.79 3521.8 414.71C3523.8 406.19 3526.8 393.32 3526.62 389.02C3526.33 377.29 3522.57 357.45 3518.97 338.27C3512.35 303.22 3505.51 266.97 3510.23 239.33C3514.37 215.11 3526.36 194.44 3536.94 176.21C3543.43 165.05 3551.49 151.21 3552.14 144.29C3553.35 131.19 3538.53 93.93 3527.39 79.87C3488.3 85.29 3359.21 143.26 3271.97 182.4C3219.68 205.89 3165.56 230.18 3120.06 248.93C2929.06 327.62 2857.8 381.93 2831.69 413.69C2819.5 428.49 2836.02 497.39 2843.07 526.82C2848.07 547.38 2852.68 566.82 2854.77 583.35L2856.5 596.61C2869.1 692.61 2892.59 871.42 2706.12 963.2C2601.33 1014.76 2510 998.36 2436.54 985.2C2384.45 975.85 2331.06 951.2 2274.54 925.04C2224.41 901.88 2172.54 877.91 2123.33 866.36C2069.47 853.73 2006.59 850.59 1945.75 847.55C1888.2 844.7 1828.69 841.71 1776.88 830.55C1720.42 818.34 1667.82 796.19 1616.88 774.77C1580.08 759.28 1545.32 744.63 1509.29 733.51C1469.95 721.36 1424.71 709.74 1376.78 697.45C1295.71 676.61 1211.78 655.07 1135.52 626.12C1118.02 619.48 1099.2 612.24 1079.59 604.71C979.891 566.4 845.591 514.81 781.691 502.94C775.321 510.86 766.401 524.63 760.511 533.71C746.151 555.86 731.311 578.71 713.891 592.57C657.891 637.04 580.741 713.28 556.891 744.49C448.821 886.14 287.301 1185.15 241.411 1358.19L237.341 1373.53C193.551 1538.61 138.911 1744.53 117.341 1884.63C108.241 1943.63 113.401 2116.4 115.891 2199.55L116.731 2228.86C117.501 2256.78 101.811 2278.61 90.3611 2294.55C88.4711 2297.17 86.0511 2300.55 84.0811 2303.55M3592.08 466.61C3592.99 466.61 3594.02 466.61 3595.18 466.61C3595.59 460.719 3595.44 454.804 3594.75 448.94C3593.48 454.78 3592.59 460.696 3592.08 466.65" fill="white"/>
</g>
<defs>
<clipPath id="clip0_13_789">
<rect width="3972" height="2467" fill="white"/>
</clipPath>
</defs>
</svg>

<svg xmlns="http://www.w3.org/2000/svg" viewBox="0 0 3972.15 3211.74"><defs><style>.cls-1{fill:#fff;}</style></defs><title>Monaco - White_1</title><g id="Layer_2" data-name="Layer 2"><g id="Layer_1-2" data-name="Layer 1"><path class="cls-1" d="M875.25,3206.69V2857.23h70.2l99,295.42,99-295.42h70.19v349.46h-38.88V2898.64h-7.07l-101.51,295.42h-43.43l-101.5-295.42h-7.07v308.05Z"/><path class="cls-1" d="M1561.54,3034.48q0,93.43-29.79,135.34t-108.32,41.92q-78.54,0-108.33-42.93t-29.79-135.08q0-92.16,30.3-136.86t107.56-44.69q77.26,0,107.82,44.44T1561.54,3034.48Zm-236.34-1q0,76.77,20.2,110.35t78,33.58q57.81,0,77.77-32.83t19.94-110.09q0-77.27-20.7-112.61t-77.52-35.35q-56.81,0-77.26,35.1T1325.2,3033.47Z"/><path class="cls-1" d="M1632.74,3206.69V2857.23h72.72l133.83,315.12h10.6V2857.23h38.38v349.46h-71.2l-135.85-315.12h-9.59v315.12Z"/><path class="cls-1" d="M1943.32,3206.69l95.94-349.46h84.85l95.95,349.46h-38.39l-25.25-89.89H2007l-25.25,89.89Zm125.24-316.13-53,191.39h132.31l-53-191.39Z"/><path class="cls-1" d="M2480.13,3201.13q-52,10.6-93.43,10.61t-66.91-11.36A83.84,83.84,0,0,1,2280.4,3165q-13.89-24-19.19-55.05t-5.3-77.52q0-46.46,5.3-78t19.19-55.8a82.28,82.28,0,0,1,39.14-35.35q25.24-11.1,65.65-11.11t94.94,11.11l-1.51,32.82q-51-9.09-90.9-9.09-55.56,0-73.48,33.08T2296.31,3033q0,39.9,3.28,64.13a140.7,140.7,0,0,0,12.88,43.69q9.59,19.44,28,27.77t54,8.33q35.61,0,84.09-9.09Z"/><path class="cls-1" d="M2800.3,3034.48q0,93.43-29.79,135.34t-108.33,41.92q-78.53,0-108.32-42.93t-29.79-135.08q0-92.16,30.3-136.86t107.56-44.69q77.27,0,107.82,44.44T2800.3,3034.48Zm-236.34-1q0,76.77,20.2,110.35t78,33.58q57.83,0,77.77-32.83t20-110.09q0-77.27-20.7-112.61t-77.52-35.35q-56.82,0-77.27,35.1T2564,3033.47Z"/><path class="cls-1" d="M345.16,2461.91c-54.44,16.51-132.77-9.45-208.43-37.55l-14.25-5.25C93.8,2408.65,25,2379.25,5.08,2331.9c-15.1-36,7-66.74,20.22-85.1,3.54-4.92,8.74-12.15,10.36-15.8l-.8-27.13c-3.74-127.67-6.94-268.81,2.55-330.25,22.29-144.55,77.67-352.89,122.06-519.89l4.07-15.34c49.18-185,215-492,330.17-642.77C524.13,655.82,607.39,575,665,529.27c6.9-5.47,19.55-25,28.79-39.18,24.62-37.91,47.92-73.7,86.47-69.14h0c67.48,8,206.17,61.25,328.49,108.26,19.49,7.49,38.19,14.67,55.6,21.28,72.19,27.4,153.85,48.38,232.82,68.68,48.82,12.55,94.94,24.38,136,37.09,39.7,12.26,77.9,28.34,114.83,43.89,49.75,21,96.74,40.73,146,51.39,45.52,9.85,99.26,12.55,156.15,15.39,64.27,3.22,130.73,6.55,191.45,20.81,57,13.36,112.43,39,166.06,63.81,51.81,24,100.75,46.57,143,54.14,81.7,14.66,145.42,22.2,221.14-15.1,134.74-66.24,118.3-191.71,106.33-283.22l-1.76-13.64c-1.54-12.1-5.68-29.45-10.1-47.79-15.44-64.59-33-137.74,4.85-183.63,47.06-57.09,151.57-118.43,319.25-187.45,44.37-18.26,97.93-42.26,149.68-65.49,219-98.22,283.51-122.14,320.12-103.57,39.58,20.05,74.09,102,70,146.28a93.51,93.51,0,0,1-3,16.31,72.4,72.4,0,0,1,19.27-7.28c26.15-5.5,54.94,2.12,85.42,10.17,14.56,3.86,29.62,7.83,43.76,10.15,132.54,21.65,196.8,59.89,196.5,116.93-.26,49-37.7,105.25-85.16,176.57-24.46,36.78-49.78,74.82-70.07,112.66-48.63,90.64-116.46,183-196.17,267-76.3,80.49-190.95,177.13-292.15,246.19s-230.56,104-300.83,101.75c-40.87-1.34-80-2.08-118.76-2.82-68.38-1.33-139.13-2.67-216.1-7.34-119.94-7.28-254.3-15.42-369-39.15-84.7-17.56-181.67-50.3-259.61-76.61-25.69-8.67-49-16.54-68.46-22.69-19.24-6.1-39.74-14.87-59.57-23.38-16-6.83-40.23-17.22-55.37-21.39-.66,1.6-1.31,3.17-1.86,4.53-7.16,17.42-18,43.76-45.75,52.46-38.86,11.7-91.69-9.42-115.27-27.77-19.7-15.35-26.15-39.27-30.84-56.75-.58-2.19-1.32-4.92-2.05-7.41C1604.63,946,1455.31,886.58,1310.66,829c-149.51-59.54-304.17-121.11-378-146.24-18.54-5.47-82.89,38.4-107.16,55l-14.65,10c-145.75,97.91-223.15,269.9-240.69,328-3.75,12.42,7.56,32.81,17.55,50.79,11.1,20,22.57,40.65,23.07,64.13,1.08,50.79-15.09,92.27-35.56,144.79l-.67,1.71c-10.61,27.2-23.31,62-36.74,98.82-33,90.38-70.4,192.94-103.17,257.43-21.74,42.82-70.78,33.26-97.14,28.14-4.67-.91-11.29-2.19-16.75-3-15,36.17-32.42,123.23-40,204-6.72,70.89-3.94,163.36,6.77,224.83,5,28.6,25.89,62.38,42.71,89.53,6.47,10.46,12.43,20.13,17.15,28.68,3.15,5.74,9.36,13,15.38,20.08,13.42,15.79,28.64,33.67,33,58.07,8.48,47.62-3.05,102.41-47.94,117.34-.87.28-1.73.56-2.62.83m-261-158.39c9.19,9.29,31.85,24.85,67.2,37.73l14.7,5.43c35,13,113.47,42.12,150.37,37.59a79,79,0,0,0-.38-24.19c-1.21-3.43-9.49-13.17-15-19.63-8.19-9.6-17.45-20.5-24.54-33.35-4.15-7.54-9.4-16-15.07-25.16-20.52-33.12-46-74.31-53.68-118.55-12-69.06-15-168.33-7.54-247,6.13-64.53,26.05-200,57.66-251.08,23.7-38.42,69.17-29.56,96.31-24.26,4.55.88,10.4,2,15.38,2.77,29.12-60.75,62.84-153,92.79-235,13.64-37.28,26.51-72.47,37.45-100.53l.67-1.7c18.48-47.32,30.67-78.55,29.94-112.86-.63-4.32-8-17.64-12.92-26.45-16-28.89-38-68.45-24.12-114.16.71-2.36,74-238.47,273.85-372.59l14.13-9.59c54.57-37.24,122.41-83.57,177.71-64.73,75.64,25.76,224.23,84.94,381.5,147.56C1491,813.59,1646.49,875.5,1722,901.27c29.07,9.93,36.9,39.1,42.11,58.4,1.28,4.71,3.28,12.21,4.88,15.81,9.38,6.37,24.45,11.32,34.41,12.82.75-1.79,1.5-3.61,2.14-5.15,7.74-18.9,22.07-54,60.45-56.5,28.89-1.88,62.66,12.6,101.73,29.35,18.07,7.76,36.75,15.76,52.3,20.67,19.9,6.29,43.65,14.32,69.88,23.17,75.9,25.62,170.32,57.53,250.35,74.12,109.13,22.61,240.45,30.58,356.24,37.63,76.83,4.69,143.6,6,214.28,7.34,39.12.76,78.54,1.53,119.74,2.88,58.7,1.94,169.9-30.49,254.26-88,96.94-66.12,206.6-158.4,279.37-235.09,74.94-79,138.52-165.34,183.88-249.77,22.11-41.16,48.51-80.79,74-119.08,30.28-45.48,67.56-101.43,71.47-128.26-10.65-10.23-52.1-28.74-129.92-41.45-17.82-2.9-35.49-7.58-51.08-11.7-16.85-4.46-39.72-10.49-48.79-9.4-5.55,2.91-15.36,13.77-17.25,19.24-3.82,23.38,5.19,66.74,13.16,105,13.2,63.45,24.59,118.28-1.06,154.48-11.26,15.92-28,25.57-48.26,27.86-35.13,4-61.64-4-78.83-23.67-27.22-31.25-17.08-75.18-9.66-107.26,2-8.52,5-21.39,4.82-25.69-.29-11.73-4.05-31.57-7.65-50.75-6.62-35.05-13.46-71.3-8.74-98.94,4.14-24.22,16.13-44.89,26.71-63.12,6.49-11.16,14.55-25,15.2-31.92,1.21-13.1-13.61-50.36-24.75-64.42-39.09,5.42-168.18,63.39-255.42,102.53-52.29,23.49-106.41,47.78-151.91,66.53-191,78.69-262.26,133-288.37,164.76-12.19,14.8,4.33,83.7,11.38,113.13,5,20.56,9.61,40,11.7,56.53l1.73,13.26c12.6,96,36.09,274.81-150.38,366.59-104.79,51.56-196.12,35.16-269.58,22-52.09-9.35-105.48-34-162-60.16-50.13-23.16-102-47.13-151.21-58.68-53.86-12.63-116.74-15.77-177.58-18.81-57.55-2.85-117.06-5.84-168.87-17-56.46-12.21-109.06-34.36-160-55.78-36.8-15.49-71.56-30.14-107.59-41.26-39.34-12.15-84.58-23.77-132.51-36.06-81.07-20.84-165-42.38-241.26-71.33-17.5-6.64-36.32-13.88-55.93-21.41-99.7-38.31-234-89.9-297.9-101.77-6.37,7.92-15.29,21.69-21.18,30.77-14.36,22.15-29.2,45-46.62,58.86-56,44.47-133.15,120.71-157,151.92C448.82,886.14,287.3,1185.15,241.41,1358.19l-4.07,15.34c-43.79,165.08-98.43,371-120,511.1-9.1,59-3.94,231.77-1.45,314.92l.84,29.31c.77,27.92-14.92,49.75-26.37,65.69-1.89,2.62-4.31,6-6.28,9m3508-1836.94c.91,0,1.94,0,3.1,0a94.73,94.73,0,0,0-.43-17.67,140,140,0,0,0-2.67,17.71M770,501.11h0"/></g></g></svg>
